icons/svgs/map-location-dot-solid.svg

<svg width="24" height="24" viewBox="0 0 24 24" fill="none" xmlns="http://www.w3.org/2000/svg">
<path d="M17.1875 6.6875C17.1875 8.83594 14.2969 12.625 13.0469 14.1875C12.7734 14.5781 12.1875 14.5781 11.9141 14.1875C10.6641 12.625 7.8125 8.83594 7.8125 6.6875C7.8125 4.10938 9.88281 2 12.5 2C15.0781 2 17.1875 4.10938 17.1875 6.6875ZM17.5 9.85156C17.6172 9.57812 17.7344 9.30469 17.8516 9.03125C17.8906 8.99219 17.8906 8.95312 17.9297 8.91406L22.4609 7.07812C23.0469 6.84375 23.75 7.27344 23.75 7.9375V18.5234C23.75 18.9141 23.5156 19.2656 23.125 19.4219L17.5 21.6484V9.85156ZM6.60156 7.42969C6.71875 7.97656 6.875 8.52344 7.10938 9.03125C7.22656 9.30469 7.34375 9.57812 7.5 9.85156V19.6562L2.5 21.6484C1.91406 21.8828 1.25 21.4531 1.25 20.7891V10.2031C1.25 9.8125 1.48438 9.46094 1.83594 9.34375L6.60156 7.42969ZM14.0234 14.9688C14.5703 14.3047 15.4297 13.2109 16.25 11.9609V21.7266L8.75 19.5781V11.9609C9.53125 13.2109 10.3906 14.3047 10.9375 14.9688C11.7188 15.9844 13.2422 15.9844 14.0234 14.9688ZM12.5 7.9375C13.0469 7.9375 13.5547 7.66406 13.8281 7.15625C14.1016 6.6875 14.1016 6.10156 13.8281 5.59375C13.5547 5.125 13.0469 4.8125 12.5 4.8125C11.9141 4.8125 11.4062 5.125 11.1328 5.59375C10.8594 6.10156 10.8594 6.6875 11.1328 7.15625C11.4062 7.66406 11.9141 7.9375 12.5 7.9375Z" fill="black"/>
</svg>

<svg xmlns="http://www.w3.org/2000/svg" width="24" height="24" fill="currentColor" class="icon-map-location-dot-solid" viewBox="0 0 24 24">
  <mask id="a" width="23" height="20" x="1" y="2" maskUnits="userSpaceOnUse" style="mask-type:alpha">
    <path d="M17.188 6.688c0 2.148-2.891 5.937-4.141 7.5a.694.694 0 0 1-1.133 0c-1.25-1.563-4.101-5.352-4.101-7.5A4.676 4.676 0 0 1 12.5 2a4.7 4.7 0 0 1 4.688 4.688m.312 3.164.352-.82c.039-.04.039-.079.078-.118l4.53-1.836c.587-.234 1.29.195 1.29.86v10.585a.96.96 0 0 1-.625.899L17.5 21.648zM6.602 7.43c.117.547.273 1.093.507 1.601.118.274.235.547.391.82v9.805l-5 1.992a.916.916 0 0 1-1.25-.859V10.203c0-.39.234-.742.586-.86zm7.421 7.539a36 36 0 0 0 2.227-3.008v9.766l-7.5-2.149v-7.617a29 29 0 0 0 2.188 3.008 1.944 1.944 0 0 0 3.085 0M12.5 7.938a1.48 1.48 0 0 0 1.328-.782c.274-.468.274-1.054 0-1.562a1.56 1.56 0 0 0-1.328-.782c-.586 0-1.094.313-1.367.782-.274.508-.274 1.093 0 1.562.273.508.781.782 1.367.782"/>
  </mask>
  <g mask="url(#a)">
    <path d="M0 0h24v24H0z"/>
  </g>
</svg>
